svgs/sharp-light/goal-net.svg

<svg xmlns="http://www.w3.org/2000/svg" viewBox="0 0 640 512"><!--! Font Awesome Pro 6.6.0 by @fontawesome - https://fontawesome.com License - https://fontawesome.com/license (Commercial License) Copyright 2024 Fonticons, Inc. --><path d="M16 32L0 32 0 48 0 464l0 16 32 0 0-16L32 64l576 0 0 400 0 16 32 0 0-16 0-416 0-16-16 0L16 32zm176 80l-32 0 0 80-80 0 0 32 80 0 0 64-80 0 0 32 80 0 0 64-80 0 0 32 80 0 0 64 32 0 0-64 64 0 0 64 32 0 0-64 64 0 0 64 32 0 0-64 64 0 0 64 32 0 0-64 80 0 0-32-80 0 0-64 80 0 0-32-80 0 0-64 80 0 0-32-80 0 0-80-32 0 0 80-64 0 0-80-32 0 0 80-64 0 0-80-32 0 0 80-64 0 0-80zm0 112l64 0 0 64-64 0 0-64zm96 0l64 0 0 64-64 0 0-64zm96 0l64 0 0 64-64 0 0-64zM192 384l0-64 64 0 0 64-64 0zm96 0l0-64 64 0 0 64-64 0zm96 0l0-64 64 0 0 64-64 0z"/></svg>

<svg xmlns="http://www.w3.org/2000/svg" viewBox="0 0 640 512"><!--! Font Awesome Pro 6.4.2 by @fontawesome - https://fontawesome.com License - https://fontawesome.com/license (Commercial License) Copyright 2023 Fonticons, Inc. --><path d="M16 32H0V48 464v16H32V464 64H608V464v16h32V464 48 32H624 16zm176 80H160v80H80v32h80v64H80v32h80v64H80v32h80v64h32V416h64v64h32V416h64v64h32V416h64v64h32V416h80V384H480V320h80V288H480V224h80V192H480V112H448v80H384V112H352v80H288V112H256v80H192V112zm0 112h64v64H192V224zm96 0h64v64H288V224zm96 0h64v64H384V224zM192 384V320h64v64H192zm96 0V320h64v64H288zm96 0V320h64v64H384z"/></svg>
